X:1
T:o
L:1/4
M:3/4
I:linebreak $
K:D
V:1 treble nm="Voice" snm="Voice"
V:1
 F/E/ |: D F F |"D" A f"G" f/e/d/B/ | A F d |"A" E2- E |$ D F F | A f f/e/d/B/ | A d e3/2 |1 d3 :|2 %9
 d2- d |:$ B3/2 A/ B | d3/2 e/ d | A F d |"A" E2- E |$ D F F | A f f/e/d/B/ | A d e3/2 |1 d2- d :|2 %18
 d3 || %19
